64x64/apps/praat.svg

<svg xmlns="http://www.w3.org/2000/svg" width="64" height="64" version="1">
 <path style="opacity:0.2" d="m 28.908422,5 c -7.756,0 -14.755016,3.1229844 -19.8160158,8.183984 L 28.908422,33 9.0924062,52.816016 C 14.153406,57.877016 21.152422,61 28.908422,61 c 15.512,0 28,-12.488 28,-28 0,-15.512 -12.488,-28 -28,-28 z"/>
 <path style="fill:#fc66cc" d="M 29.000016,4 C 21.244016,4 14.245,7.1229844 9.184,12.183984 L 29.000016,32 9.184,51.816016 C 14.245,56.877016 21.244016,60 29.000016,60 c 15.512,0 28,-12.488 28,-28 0,-15.512 -12.488,-28 -28,-28 z"/>
 <path style="opacity:0.2;fill:#f4f4f7" d="M 28.908203 4 C 21.152203 4 14.152797 7.1225936 9.0917969 12.183594 L 9.6035156 12.695312 C 14.620038 7.9258958 21.407806 5 28.908203 5 C 44.193556 5 56.534975 17.127933 56.892578 32.324219 C 56.898524 32.216284 56.908203 32.109469 56.908203 32 C 56.908203 16.488 44.420203 4 28.908203 4 z M 27.908203 33 L 9.0917969 51.816406 C 9.2585734 51.983183 9.4389662 52.135929 9.6152344 52.292969 L 27.908203 34 L 28.408203 34.5 L 28.908203 34 L 27.908203 33 z"/>
 <path style="opacity:0.2" d="m 28.908406,18.999844 a 14,14 0 0 0 -14,14 14,14 0 0 0 14,14 V 52.535 l 0.125,0.125 9.535156,-9.535156 a 14,14 0 0 0 0.253906,-0.253906 l 0.10938,-0.10938 -0.004,-0.004 a 14,14 0 0 0 3.980558,-9.757714 14,14 0 0 0 -14,-14 z"/>
 <path style="fill:#f4f4f7" d="m 42.908422,32 a 14,14 0 0 1 -14,14 14,14 0 0 1 -14,-14 14,14 0 0 1 14,-14 14,14 0 0 1 14,14 z"/>
 <path style="fill:#f4f4f7" d="m 29.031468,31.863282 -0.12304,0.12304 v 19.550782 l 0.12304,0.12304 9.90117,-9.89844 z"/>
</svg>

<svg xmlns="http://www.w3.org/2000/svg" width="64" height="64" version="1"><path style="opacity:.2" d="M28.908 5a27.91 27.91 0 0 0-19.816 8.184L28.908 33 9.092 52.816A27.91 27.91 0 0 0 28.908 61c15.512 0 28-12.488 28-28s-12.488-28-28-28z"/><path style="fill:#fc66cc" d="M29 4a27.91 27.91 0 0 0-19.816 8.184L29 32 9.184 51.816A27.91 27.91 0 0 0 29 60c15.512 0 28-12.488 28-28S44.512 4 29 4z"/><path style="opacity:.2;fill:#f4f4f7" d="M28.908 4c-7.756 0-14.755 3.123-19.816 8.184l.512.511A27.902 27.902 0 0 1 28.908 5c15.286 0 27.627 12.128 27.985 27.324.006-.108.015-.215.015-.324 0-15.512-12.488-28-28-28zm-1 29L9.092 51.816c.167.167.347.32.523.477L27.908 34l.5.5.5-.5-1-1z"/><path style="opacity:.2" d="M28.908 19a14 14 0 0 0-14 14 14 14 0 0 0 14 14v5.535l.125.125 9.536-9.535a14 14 0 0 0 .253-.254l.11-.11-.004-.003A14 14 0 0 0 42.908 33a14 14 0 0 0-14-14z"/><path style="fill:#f4f4f7" d="M42.908 32a14 14 0 0 1-14 14 14 14 0 0 1-14-14 14 14 0 0 1 14-14 14 14 0 0 1 14 14z"/><path style="fill:#f4f4f7" d="m29.031 31.863-.123.123v19.551l.123.123 9.902-9.898z"/></svg>
